texture_08.svg

<?xml version="1.0" encoding="UTF-8"?>
<svg width="1024" height="1024" version="1.1" xmlns="http://www.w3.org/2000/svg">
 <path d="m512 256v-256h256v256h256v256h-256v256h256v256h-256v-256h-256v256h-256v-256h-256v-256h256v-256h-256v-256h256v256h256v256h-256v256h256v-256h256v-256h-256" fill-opacity=".10196"/>
</svg>

<?xml version="1.0" encoding="UTF-8" standalone="no"?>
<svg
   version="1.1"
   id="svg10"
   sodipodi:docname="texture_08.svg"
   width="1024"
   height="1024"
   inkscape:version="1.1.2 (0a00cf5339, 2022-02-04)"
   xmlns:inkscape="http://www.inkscape.org/namespaces/inkscape"
   xmlns:sodipodi="http://sodipodi.sourceforge.net/DTD/sodipodi-0.dtd"
   xmlns="http://www.w3.org/2000/svg"
   xmlns:svg="http://www.w3.org/2000/svg">
  <sodipodi:namedview
     id="namedview12"
     pagecolor="#505050"
     bordercolor="#eeeeee"
     borderopacity="1"
     inkscape:pageshadow="0"
     inkscape:pageopacity="0"
     inkscape:pagecheckerboard="0"
     showgrid="false"
     inkscape:zoom="0.50333333"
     inkscape:cx="514.56954"
     inkscape:cy="597.01987"
     inkscape:window-width="1440"
     inkscape:window-height="831"
     inkscape:window-x="1280"
     inkscape:window-y="32"
     inkscape:window-maximized="1"
     inkscape:current-layer="g8" />
  <defs
     id="defs2" />
  <g
     id="g8">
    <path
       stroke="none"
       fill="#000000"
       fill-opacity="0.101961"
       d="M 512,256 V 0 h 256 v 256 h 256 V 512 H 768 v 256 h 256 v 256 H 768 V 768 H 512 v 256 H 256 V 768 H 0 V 512 H 256 V 256 H 0 V 0 H 256 V 256 H 512 V 512 H 256 V 768 H 512 V 512 H 768 V 256 H 512"
       id="path6" />
  </g>
</svg>
